website/static/projects/index/anybots/thumbnail.svg

<?xml version="1.0" encoding="UTF-8"?>
<svg width="1458px" height="1400px" viewBox="0 0 1458 1400" version="1.1" xmlns="http://www.w3.org/2000/svg" xmlns:xlink="http://www.w3.org/1999/xlink">
    <title>logo</title>
    <defs>
        <radialGradient cx="30.5189412%" cy="56.6474208%" fx="30.5189412%" fy="56.6474208%" r="79.1103449%" gradientTransform="translate(0.305189,0.566474),scale(1.000000,0.942416),rotate(-37.322048),translate(-0.305189,-0.566474)" id="radialGradient-1">
            <stop stop-color="#FFFFFF" offset="0%"></stop>
            <stop stop-color="#FFFFFF" stop-opacity="0.925664719" offset="47.4978147%"></stop>
            <stop stop-color="#FFFFFF" stop-opacity="0.292258523" offset="100%"></stop>
        </radialGradient>
        <path d="M133.408521,214.152705 C372.733533,-88.0509016 1079.26647,-88.0509016 1318.59148,214.152705 C1426.3277,350.194797 1419.89518,1056.92776 1318.59148,1184.8473 C1079.26647,1487.0509 372.733533,1487.0509 133.408521,1184.8473 C25.6722965,1048.8052 32.104818,342.072239 133.408521,214.152705 Z" id="path-2"></path>
    </defs>
    <g id="logo" stroke="none" stroke-width="1" fill="none" fill-rule="evenodd">
        <g id="Path-3" transform="translate(726.000000, 699.500000) rotate(-280.000000) translate(-726.000000, -699.500000) ">
            <use fill="url(#radialGradient-1)" xlink:href="#path-2"></use>
            <use fill-opacity="0.651688156" fill="#FFFFFF" xlink:href="#path-2"></use>
        </g>
        <path d="M501.524898,186.720299 C541.750619,221.79701 574.988176,263.886624 599.66239,311.170584 L599.655334,311.159491 C733.150376,290.343966 880.873168,294.222751 1009.06579,322.795846 L1009.05769,322.806997 C1008.24521,320.26928 1007.38746,317.742891 1006.48467,315.228762 C991.440623,273.333817 1013.20758,227.175647 1055.10252,212.131603 C1096.99747,197.087559 1143.15564,218.854515 1158.19968,260.749459 C1172.37249,300.218174 1180.05379,341.5642 1180.95315,383.389564 L1180.97346,383.374942 C1216.69707,402.204578 1247.84981,424.148901 1272.9195,449.207914 C1363.71657,539.966332 1358.29542,1011.45251 1272.9195,1096.79209 C1071.22308,1298.40264 475.776919,1298.40264 274.080504,1096.79209 C183.283433,1006.03367 188.704582,534.547491 274.080504,449.207914 C307.620418,415.682278 352.048324,387.73159 403.743114,365.35585 L403.762012,365.369601 C394.734022,353.878666 384.613025,343.232708 373.498095,333.540521 C332.95481,298.186896 328.74776,236.660294 364.101386,196.117009 C399.455011,155.573724 460.981613,151.366674 501.524898,186.720299 Z M773.5,489.6 C689.656011,489.6 608.086826,500.24369 539.995029,519.891499 C488.412488,534.775581 448.408785,553.734211 423.085535,573.004529 L422.234,573.656 L421.73087,575.274078 L421.337242,576.574917 C421.271502,576.794862 421.205699,577.016372 421.139835,577.239437 L420.743969,578.59643 L420.346874,579.990363 L419.948763,581.420839 L419.549848,582.887462 L419.150339,584.389835 L418.750448,585.927561 L418.350386,587.500244 L417.950366,589.107486 L417.550598,590.748892 L417.151295,592.424065 L416.752667,594.132608 L416.354926,595.874124 L415.958283,597.648216 L415.562951,599.454489 L414.972871,602.223368 L414.581739,604.108355 L414.192657,606.024134 L413.805837,607.970308 L413.437792,609.861782 L412.930406,612.534885 C411.169404,621.947052 409.564681,631.947058 408.127325,642.428492 L407.721215,645.436195 C407.654293,645.939632 407.587752,646.444137 407.521594,646.9497 L407.129255,649.995669 C407.064634,650.505414 407.000399,651.016194 406.936551,651.527996 L406.558112,654.610991 C406.495815,655.126838 406.433907,655.643685 406.37239,656.16152 L406.007979,659.280299 L405.652993,662.422244 L405.307489,665.586805 L404.971524,668.773429 L404.645155,671.981565 C404.591564,672.518016 404.538374,673.055341 404.485588,673.593528 L404.173723,676.832898 L403.871598,680.092401 L403.579271,683.371486 C403.483468,684.467716 403.389308,685.567119 403.2968,686.669601 L403.024241,689.986194 C402.935046,691.094744 402.847514,692.206282 402.761653,693.320715 L402.509092,696.672611 C402.426583,697.792745 402.345754,698.915682 402.266617,700.041332 L402.034284,703.426324 C401.99641,703.991815 401.958962,704.557961 401.921939,705.124751 L401.704928,708.533118 L401.498204,711.956379 C401.431017,713.099887 401.365553,714.245785 401.301823,715.393982 L401.115844,718.845375 C401.085717,719.421726 401.056027,719.998628 401.026773,720.576071 L400.856503,724.047116 L400.696778,727.530573 C400.645301,728.693733 400.59559,729.858869 400.547656,731.02589 L400.409194,734.532516 C400.387008,735.117865 400.365269,735.703663 400.343978,736.289897 L400.221613,739.812451 C400.202118,740.400387 400.183072,740.988736 400.164478,741.577487 L400.05834,745.114729 C400.041556,745.705043 400.025226,746.295737 400.009351,746.886798 L399.919569,750.437487 C399.891468,751.62246 399.865196,752.808812 399.840763,753.996452 L399.772991,757.56314 L399.716309,761.137 L399.670776,764.717481 L399.636448,768.304031 C399.62688,769.500497 399.619188,770.697884 399.613384,771.896098 L399.601285,775.508786 L399.601285,779.114889 C399.601285,780.315766 399.601285,781.515457 399.612363,782.713873 L399.634793,786.305206 L399.668527,789.888357 C399.68165,791.081317 399.696649,792.272824 399.713516,793.462791 L399.76971,797.027976 C399.780006,797.621374 399.790768,798.214363 399.801993,798.806934 L399.874903,802.357248 L399.958896,805.896983 L400.053923,809.425604 L400.159935,812.94258 L400.276883,816.447379 L400.404717,819.939467 C400.426927,820.520393 400.449589,821.100767 400.472701,821.680579 L400.616773,825.152603 C400.666594,826.307633 400.718209,827.460324 400.77161,828.610585 L400.937162,832.053993 C400.965644,832.62665 400.99457,833.198678 401.02394,833.770065 L401.205473,837.190613 L401.397598,840.595256 L401.497617,842.291445 L401.705539,845.67123 L401.923931,849.033778 L402.152743,852.378556 L402.391928,855.705031 L402.641436,859.012672 L402.901217,862.300944 C402.945367,862.847346 402.989943,863.392919 403.034945,863.937652 L403.310045,867.195875 C403.356742,867.737202 403.403862,868.277666 403.451405,868.817257 L403.741713,872.044232 C403.790939,872.580284 403.840585,873.115441 403.890649,873.649691 L404.196056,876.844219 C404.247792,877.374797 404.299945,877.904446 404.352514,878.433155 L404.672908,881.594039 C404.727136,882.118943 404.781778,882.642884 404.836832,883.165853 L405.172104,886.291893 C405.342209,887.848984 405.516009,889.397114 405.693479,890.935985 L406.053301,894.00129 C406.174867,895.018884 406.298055,896.032273 406.422858,897.04137 L406.8021,900.055691 C406.930123,901.056112 407.059752,902.052152 407.190979,903.043721 L407.589445,906.004927 C407.723859,906.987466 407.859863,907.965446 407.997449,908.938777 L408.414942,911.844738 L408.841876,914.722278 C408.913816,915.19947 408.986147,915.675456 409.058868,916.150224 L409.49987,918.984133 C409.574148,919.453986 409.648814,919.9226 409.723868,920.389963 L410.178828,923.179044 C410.255427,923.641359 410.33241,924.102402 410.409778,924.56216 L410.878586,927.305213 C411.273087,929.578102 411.67714,931.818334 412.090619,934.024522 L412.461143,935.978939 L412.83452,937.903899 L413.210548,939.799037 L413.589025,941.663989 L413.969749,943.498392 C414.033379,943.80156 414.097095,944.103439 414.160891,944.404023 L414.544607,946.191918 L414.930065,947.948353 L415.317062,949.672964 L415.705398,951.365387 L416.09487,953.025257 L416.485276,954.65221 C416.55041,954.920606 416.615575,955.187615 416.680766,955.45323 L417.072194,957.030125 L417.464051,958.573195 L417.856135,960.082073 L418.248244,961.556396 L418.640176,962.9958 L419.031729,964.399921 L419.422701,965.768394 L419.81289,967.100856 C419.877845,967.319912 419.942759,967.537452 420.007627,967.753469 L420.396263,969.031231 L420.78361,970.272072 L421.186,971.526 L421.426221,971.715928 C446.347526,991.192967 486.317376,1010.43694 538.139216,1025.5698 L539.995029,1026.1085 C608.086826,1045.75631 689.656011,1056.4 773.5,1056.4 C857.343989,1056.4 938.913174,1045.75631 1007.00497,1026.1085 C1058.58751,1011.22442 1098.59121,992.265789 1123.91447,972.995471 L1124.765,972.343 L1125.26913,970.725922 L1125.66276,969.425083 C1125.7285,969.205138 1125.7943,968.983628 1125.86016,968.760563 L1126.25603,967.40357 L1126.65313,966.009637 L1127.05124,964.579161 L1127.45015,963.112538 L1127.84966,961.610165 L1128.24955,960.072439 L1128.64961,958.499756 L1129.04963,956.892514 L1129.4494,955.251108 L1129.84871,953.575935 L1130.24733,951.867392 L1130.64507,950.125876 L1131.04172,948.351784 L1131.43705,946.545511 L1132.02713,943.776632 L1132.41826,941.891645 L1132.80734,939.975866 L1133.19416,938.029692 L1133.56221,936.138218 L1134.06959,933.465115 C1134.98201,928.588449 1135.85247,923.553975 1136.67944,918.376496 C1173.40808,880.333423 1196,828.555025 1196,771.5 C1196,714.71897 1173.62454,663.164008 1137.21002,625.171515 L1136.82117,622.820956 C1136.74457,622.358641 1136.66759,621.897598 1136.59022,621.43784 L1136.12141,618.694787 C1135.72691,616.421898 1135.32286,614.181666 1134.90938,611.975478 L1134.53886,610.021061 L1134.16548,608.096101 L1133.78945,606.200963 L1133.41097,604.336011 L1133.03025,602.501608 C1132.96662,602.19844 1132.90291,601.896561 1132.83911,601.595977 L1132.45539,599.808082 L1132.06994,598.051647 L1131.68294,596.327036 L1131.2946,594.634613 L1130.90513,592.974743 L1130.51472,591.34779 C1130.44959,591.079394 1130.38442,590.812385 1130.31923,590.54677 L1129.92781,588.969875 L1129.53595,587.426805 L1129.14386,585.917927 L1128.75176,584.443604 L1128.35982,583.0042 L1127.96827,581.600079 L1127.5773,580.231606 L1127.18711,578.899144 C1127.12216,578.680088 1127.05724,578.462548 1126.99237,578.246531 L1126.60374,576.968769 L1126.21639,575.727928 L1125.813,574.473 L1125.57378,574.284072 C1100.65247,554.807033 1060.68262,535.563063 1008.86078,520.430203 L1007.00497,519.891499 C938.913174,500.24369 857.343989,489.6 773.5,489.6 Z" id="Combined-Shape" fill="#5A65F4" fill-rule="nonzero"></path>
        <circle id="Oval" fill="#5A65F4" cx="1087.5" cy="771.5" r="111"></circle>
        <circle id="Oval" fill="#5A65F4" cx="659" cy="772" r="163"></circle>
    </g>
</svg>

<svg width="1458" height="1400" viewBox="0 0 1458 1400" xmlns="http://www.w3.org/2000/svg" xmlns:xlink="http://www.w3.org/1999/xlink"><defs><radialGradient cx="30.52%" cy="56.65%" fx="30.52%" fy="56.65%" r="79.11%" gradientTransform="matrix(.79524 -.57138 .6063 .74945 -.28 .32)" id="a"><stop stop-color="#FFF" offset="0%"/><stop stop-color="#FFF" stop-opacity=".93" offset="47.5%"/><stop stop-color="#FFF" stop-opacity=".29" offset="100%"/></radialGradient><path d="M133.4 214.15c239.33-302.2 945.87-302.2 1185.2 0 107.73 136.04 101.3 842.78 0 970.7-239.33 302.2-945.87 302.2-1185.2 0-107.73-136.04-101.3-842.78 0-970.7Z" id="b"/></defs><g fill="none" fill-rule="evenodd"><g transform="rotate(80 726 699.5)"><use fill="url(#a)" xlink:href="#b"/><use fill-opacity=".65" fill="#FFF" xlink:href="#b"/></g><path d="M501.52 186.72a427.22 427.22 0 0 1 98.14 124.45v-.01c133.49-20.82 281.21-16.94 409.4 11.64-.81-2.53-1.67-5.06-2.58-7.57a80.6 80.6 0 1 1 151.72-54.48 387.24 387.24 0 0 1 22.75 122.64l.02-.02c35.73 18.83 66.88 40.78 91.95 65.84 90.8 90.76 85.38 562.24 0 647.58-201.7 201.61-797.14 201.61-998.84 0-90.8-90.76-85.38-562.24 0-647.58 33.54-33.53 77.97-61.48 129.66-83.85l.02.01a234.17 234.17 0 0 0-30.26-31.83c-40.55-35.35-44.75-96.88-9.4-137.42 35.36-40.55 96.88-44.75 137.42-9.4ZM773.5 489.6c-83.84 0-165.41 10.64-233.5 30.3-51.59 14.88-91.6 33.83-116.91 53.1l-.86.66-.5 1.61-.4 1.3-.19.67-.4 1.36-.4 1.39-.4 1.43-.39 1.47-.4 1.5-.4 1.54-.4 1.57-.4 1.6-.4 1.65-.4 1.67-.4 1.71-.4 1.74-.4 1.78-.39 1.8-.59 2.77-.39 1.89-.39 1.91-.38 1.95-.37 1.9-.51 2.66a624.36 624.36 0 0 0-4.8 29.9l-.4 3c-.08.51-.14 1.01-.2 1.52l-.4 3.05-.2 1.53-.37 3.08-.19 1.55-.36 3.12-.36 3.14-.34 3.17-.34 3.18-.32 3.21-.16 1.61-.32 3.24-.3 3.26-.3 3.28-.27 3.3-.28 3.32-.26 3.33-.25 3.35-.24 3.37-.24 3.39-.1 1.7-.23 3.4-.2 3.43-.2 3.43-.18 3.46-.1 1.73-.16 3.47-.16 3.48-.15 3.5-.14 3.5-.07 1.76-.12 3.52-.06 1.77-.1 3.53-.05 1.78-.09 3.55-.08 3.56-.07 3.56-.05 3.58-.05 3.58-.03 3.58-.03 3.6v10.81l.02 3.6.04 3.58.04 3.57.06 3.57.03 1.78.07 3.55.09 3.54.1 3.53.1 3.51.12 3.5.12 3.5.07 1.74.15 3.47.15 3.46.17 3.44.08 1.72.19 3.42.19 3.4.1 1.7.2 3.38.22 3.36.23 3.35.24 3.33.25 3.3.26 3.3.13 1.63.28 3.26.14 1.62.3 3.22.14 1.61.3 3.2.16 1.58.32 3.16.17 1.58.33 3.12.52 4.65.36 3.06.37 3.04.38 3.02.4 2.98.39 2.96.4 2.94.42 2.9.43 2.88.22 1.43.44 2.83.22 1.41.46 2.79.23 1.38.47 2.75c.4 2.27.8 4.5 1.21 6.71l.37 1.96.37 1.92.38 1.9.38 1.86.38 1.84.2.9.37 1.8.39 1.75.39 1.72.39 1.7.38 1.66.4 1.62.2.8.38 1.58.4 1.54.39 1.51.39 1.48.39 1.44.4 1.4.38 1.37.4 1.33.19.65.39 1.28.38 1.24.4 1.26.25.19c24.92 19.47 64.89 38.72 116.7 53.85l1.87.54c68.09 19.65 149.66 30.29 233.5 30.29s165.41-10.64 233.5-30.3c51.59-14.88 91.6-33.83 116.91-53.1l.86-.66.5-1.61.4-1.3.19-.67.4-1.36.4-1.39.4-1.43.39-1.47.4-1.5.4-1.54.4-1.57.4-1.6.4-1.65.4-1.67.4-1.71.4-1.74.4-1.78.39-1.8.59-2.77.39-1.89.39-1.91.38-1.95.37-1.9.51-2.66c.91-4.88 1.78-9.92 2.6-15.1A210.78 210.78 0 0 0 1196 771.5a210.79 210.79 0 0 0-58.79-146.33l-.39-2.35-.23-1.38-.47-2.75c-.4-2.27-.8-4.5-1.21-6.71l-.37-1.96-.37-1.92-.38-1.9-.38-1.86-.38-1.84-.2-.9-.37-1.8-.39-1.75-.39-1.72-.39-1.7-.38-1.66-.4-1.62-.2-.8-.38-1.58-.4-1.54-.39-1.51-.39-1.48-.39-1.44-.4-1.4-.38-1.37-.4-1.33-.19-.65-.39-1.28-.38-1.24-.4-1.26-.25-.19c-24.92-19.47-64.89-38.72-116.7-53.85l-1.87-.54c-68.09-19.65-149.66-30.29-233.5-30.29Z" fill="#5A65F4" fill-rule="nonzero"/><circle fill="#5A65F4" cx="1087.5" cy="771.5" r="111"/><circle fill="#5A65F4" cx="659" cy="772" r="163"/></g></svg>
